src/Pure-Dark/16/symbolic/status/stopwatch-symbolic.svg

<?xml version="1.0" encoding="UTF-8" standalone="no"?>
<svg
   width="16"
   height="16"
   version="1"
   id="svg1"
   sodipodi:docname="stopwatch-symbolic.svg"
   inkscape:version="1.4.2 (ebf0e940d0, 2025-05-08)"
   xmlns:inkscape="http://www.inkscape.org/namespaces/inkscape"
   xmlns:sodipodi="http://sodipodi.sourceforge.net/DTD/sodipodi-0.dtd"
   xmlns="http://www.w3.org/2000/svg"
   xmlns:svg="http://www.w3.org/2000/svg">
  <defs
     id="defs1">
     <style
        id="current-color-scheme"
        type="text/css">
        .ColorScheme-Text { color:#f2f2f2; }
        .ColorScheme-NeutralText { color:#f67400; }
        .ColorScheme-PositiveText { color:#37c837; }
        .ColorScheme-NegativeText { color:#f44336; }
        .ColorScheme-Highlight { color:#3daee9; }
     </style>
  </defs>
  <sodipodi:namedview
     id="namedview1"
     pagecolor="#ffffff"
     bordercolor="#000000"
     borderopacity="0.25"
     inkscape:showpageshadow="2"
     inkscape:pageopacity="0.0"
     inkscape:pagecheckerboard="0"
     inkscape:deskcolor="#d1d1d1"
     inkscape:zoom="49.6875"
     inkscape:cx="8"
     inkscape:cy="8"
     inkscape:window-width="1920"
     inkscape:window-height="1010"
     inkscape:window-x="0"
     inkscape:window-y="0"
     inkscape:window-maximized="1"
     inkscape:current-layer="svg1" />
  <path
     id="path1"
     style="fill:currentColor"
     class="ColorScheme-Text"
     d="M 3.1796875 0 C 2.9590275 9.4562e-06 2.7374794 0.08492825 2.5683594 0.25390625 L 0.25390625 2.5644531 C -0.08435375 2.9023731 -0.08436375 3.4490394 0.25390625 3.7871094 L 1.734375 5.265625 A 7.5 7.5 0 0 0 1 8.5 A 7.5 7.5 0 0 0 8.5 16 A 7.5 7.5 0 0 0 16 8.5 A 7.5 7.5 0 0 0 8.5 1 A 7.5 7.5 0 0 0 8.4628906 1 A 7.5 7.5 0 0 0 5.2695312 1.7324219 L 3.7890625 0.25390625 C 3.6199425 0.08489625 3.4003475 -1e-05 3.1796875 0 z M 3.1601562 1.1328125 C 3.1662534 1.1322131 3.1715873 1.1328127 3.1777344 1.1328125 C 3.2269084 1.1328125 3.2770571 1.1520581 3.3144531 1.1894531 L 4.3652344 2.2421875 A 7.5 7.5 0 0 1 4.53125 2.1367188 A 7.5 7.5 0 0 0 2.2441406 4.3632812 L 1.1933594 3.3105469 C 1.1185694 3.2357569 1.1185694 3.1158056 1.1933594 3.0410156 L 3.0429688 1.1894531 C 3.0756883 1.1567336 3.1174759 1.1370084 3.1601562 1.1328125 z M 8.5 2 A 6.5 6.5 0 0 1 15 8.5 A 6.5 6.5 0 0 1 8.5 15 A 6.5 6.5 0 0 1 2 8.5 A 6.5 6.5 0 0 1 8.5 2 z M 10.486328 4.5371094 C 10.317353 4.5415358 10.153719 4.6324 10.0625 4.7910156 L 8.7714844 7.0253906 A 1.5 1.5 0 0 0 8.5 7 A 1.5 1.5 0 0 0 7 8.5 A 1.5 1.5 0 0 0 8.5 10 A 1.5 1.5 0 0 0 10 8.5 A 1.5 1.5 0 0 0 9.6386719 7.5234375 L 10.927734 5.2890625 C 11.067734 5.0472625 10.986094 4.7418156 10.746094 4.6035156 C 10.686344 4.5690406 10.623064 4.5488216 10.558594 4.5410156 C 10.534417 4.5380883 10.510468 4.536477 10.486328 4.5371094 z " />
</svg>

<svg width="16" height="16" version="1" xmlns="http://www.w3.org/2000/svg">
 <path d="m3.1797 0c-0.22066 9.4562e-6 -0.44221 0.084932-0.61133 0.25391l-2.3145 2.3105c-0.33826 0.33792-0.33827 0.88463 0 1.2227l1.4805 1.4785a7.5 7.5 0 0 0-0.73438 3.2344 7.5 7.5 0 0 0 7.5 7.5 7.5 7.5 0 0 0 7.5-7.5 7.5 7.5 0 0 0-7.5-7.5 7.5 7.5 0 0 0-0.037109 0 7.5 7.5 0 0 0-3.1934 0.73242l-1.4805-1.4785c-0.16912-0.16901-0.38872-0.25392-0.60938-0.25391zm-0.0019531 1.1328c0.049174 0 0.099324 0.019246 0.13672 0.056641l1.0508 1.0527a7.5 7.5 0 0 1 0.16602-0.10547 7.5 7.5 0 0 0-2.2871 2.2266l-1.0508-1.0527c-0.07479-0.07479-0.07479-0.19474 0-0.26953l1.8496-1.8516c0.037395-0.037395 0.085592-0.056641 0.13477-0.056641zm5.3223 0.86719a6.5 6.5 0 0 1 6.5 6.5 6.5 6.5 0 0 1-6.5 6.5 6.5 6.5 0 0 1-6.5-6.5 6.5 6.5 0 0 1 6.5-6.5zm2.0586 2.541c-0.19341-0.023419-0.39184 0.068725-0.49609 0.25l-1.291 2.2344a1.5 1.5 0 0 0-0.27148-0.025391 1.5 1.5 0 0 0-1.5 1.5 1.5 1.5 0 0 0 1.5 1.5 1.5 1.5 0 0 0 1.5-1.5 1.5 1.5 0 0 0-0.36133-0.97656l1.2891-2.2344c0.14-0.2418 0.05836-0.54725-0.18164-0.68555-0.05975-0.034475-0.12303-0.054694-0.1875-0.0625z" fill="#f2f2f2"/>
</svg>
